assets/home-tab/Asset/zappaccount.svg

<svg width="92" height="19" viewBox="0 0 92 19" fill="none" xmlns="http://www.w3.org/2000/svg">
<path d="M8.98449 3.75258L0 3.79634L14.8842 0.568359L7.23771 14.7242L88.5555 15.2611L0.851495 18.5233L8.98449 3.75258Z" fill="#ED1C24"/>
<path d="M10.9204 12.9512L15.8378 2.65495H18.4046L18.9382 12.9512H16.7751L16.7607 10.7737H14.0208L13.0835 12.9512H10.9204ZM16.7174 4.44309L14.7418 9.07206H16.7607L16.7463 4.44309H16.7174ZM19.5102 12.9512L21.7021 2.65495H25.336C27.4414 2.65495 27.8308 4.19794 27.4991 5.74093C27.0521 7.87516 25.5379 8.84133 23.5767 8.84133H22.4664L21.5867 12.9512H19.5102ZM23.447 4.18352L22.7836 7.31276H23.7065C24.5285 7.31276 25.1918 6.82247 25.4226 5.76977C25.6389 4.76034 25.3505 4.18352 24.3122 4.18352H23.447ZM26.8438 12.9512L29.0357 2.65495H32.6697C34.775 2.65495 35.1644 4.19794 34.8327 5.74093C34.3857 7.87516 32.8715 8.84133 30.9104 8.84133H29.8L28.9203 12.9512H26.8438ZM30.7806 4.18352L30.1172 7.31276H31.0401C31.8621 7.31276 32.5254 6.82247 32.7562 5.76977C32.9725 4.76034 32.6841 4.18352 31.6458 4.18352H30.7806Z" fill="#ED1C24"/>
<path d="M36.0459 12.9512L40.9633 2.65495H43.5301L44.0637 12.9512H41.9006L41.8862 10.7737H39.1463L38.209 12.9512H36.0459ZM41.8429 4.44309L39.8673 9.07206H41.8862L41.8718 4.44309H41.8429ZM52.4227 6.13028H50.3462C50.6634 4.63055 50.4904 3.98163 49.553 3.98163C48.5004 3.98163 48.0389 5.03433 47.4188 7.94726C46.7555 11.0621 47.0727 11.6245 47.9668 11.6245C48.7167 11.6245 49.3367 11.2351 49.8126 9.01438H51.8892C51.4133 11.2351 50.4615 13.1531 47.7361 13.1531C44.6212 13.1531 44.7078 10.9323 45.3711 7.80306C46.0344 4.67381 46.8997 2.45306 50.0145 2.45306C52.9851 2.45306 52.74 4.63055 52.4227 6.13028ZM59.8797 6.13028H57.8031C58.1204 4.63055 57.9473 3.98163 57.01 3.98163C55.9573 3.98163 55.4959 5.03433 54.8758 7.94726C54.2124 11.0621 54.5297 11.6245 55.4238 11.6245C56.1736 11.6245 56.7937 11.2351 57.2696 9.01438H59.3461C58.8703 11.2351 57.9185 13.1531 55.193 13.1531C52.0782 13.1531 52.1647 10.9323 52.8281 7.80306C53.4914 4.67381 54.3566 2.45306 57.4715 2.45306C60.4421 2.45306 60.1969 4.63055 59.8797 6.13028ZM60.285 7.80306C60.9484 4.67381 61.8136 2.45306 64.9284 2.45306C68.0433 2.45306 67.9567 4.67381 67.2934 7.80306C66.6301 10.9323 65.7648 13.1531 62.65 13.1531C59.5352 13.1531 59.6217 10.9323 60.285 7.80306ZM62.3616 7.80306C61.7703 10.5718 61.7559 11.6245 62.9817 11.6245C64.2074 11.6245 64.6256 10.5718 65.2168 7.80306C65.7937 5.04875 65.8225 3.98163 64.5968 3.98163C63.371 3.98163 62.9384 5.04875 62.3616 7.80306ZM69.1921 2.65495H71.2686L69.74 9.83635C69.5237 10.8602 69.6102 11.6245 70.5764 11.6245C71.5426 11.6245 71.9464 10.8602 72.1627 9.83635L73.6912 2.65495H75.7678L74.2392 9.83635C73.6768 12.4609 71.9319 13.1531 70.2447 13.1531C68.5575 13.1531 67.0722 12.5907 67.6635 9.83635L69.1921 2.65495ZM76.7929 2.65495H79.1867L80.1961 9.70656H80.225L81.7247 2.65495H83.6282L81.4363 12.9512H79.0713L78.0619 5.74093H78.033L76.5045 12.9512H74.601L76.7929 2.65495ZM84.237 2.65495H90.8128L90.4522 4.35656H88.2026L86.3712 12.9512H84.2947L86.1261 4.35656H83.8765L84.237 2.65495Z" fill="#0F4C8B"/>
</svg>

<svg xmlns="http://www.w3.org/2000/svg" width="92" height="19" fill="none" viewBox="0 0 92 19"><path fill="#ed1c24" d="M8.984 3.753 0 3.796 14.884.568 7.238 14.724l81.318.537L.85 18.523z"/><path fill="#ed1c24" d="m10.92 12.951 4.918-10.296h2.567l.533 10.296h-2.163l-.014-2.177h-2.74l-.937 2.177zm5.797-8.508-1.975 4.63h2.019l-.015-4.63zm2.793 8.508 2.192-10.296h3.634c2.105 0 2.495 1.543 2.163 3.086-.447 2.134-1.961 3.1-3.922 3.1h-1.11l-.88 4.11zm3.937-8.767-.663 3.129h.922c.823 0 1.486-.49 1.717-1.543.216-1.01-.072-1.586-1.11-1.586zm3.397 8.767 2.192-10.296h3.634c2.105 0 2.494 1.543 2.163 3.086-.447 2.134-1.962 3.1-3.923 3.1H29.8l-.88 4.11zm3.937-8.767-.664 3.129h.923c.822 0 1.485-.49 1.716-1.543.216-1.01-.072-1.586-1.11-1.586z"/><path fill="#0f4c8b" d="m36.046 12.951 4.917-10.296h2.567l.534 10.296H41.9l-.015-2.177h-2.74l-.937 2.177zm5.797-8.508-1.976 4.63h2.02l-.015-4.63zm10.58 1.687h-2.077c.317-1.5.144-2.148-.793-2.148-1.053 0-1.514 1.052-2.134 3.965-.663 3.115-.346 3.677.548 3.677.75 0 1.37-.389 1.846-2.61h2.076c-.476 2.221-1.428 4.14-4.153 4.14-3.115 0-3.028-2.222-2.365-5.35.663-3.13 1.529-5.35 4.643-5.35 2.971 0 2.726 2.177 2.409 3.676m7.457 0h-2.077c.317-1.5.144-2.148-.793-2.148-1.053 0-1.514 1.052-2.134 3.965-.664 3.115-.346 3.677.548 3.677.75 0 1.37-.389 1.846-2.61h2.076c-.476 2.221-1.427 4.14-4.153 4.14-3.115 0-3.028-2.222-2.365-5.35.663-3.13 1.529-5.35 4.643-5.35 2.971 0 2.726 2.177 2.409 3.676m.405 1.673c.663-3.13 1.529-5.35 4.643-5.35 3.115 0 3.029 2.22 2.365 5.35s-1.528 5.35-4.643 5.35-3.028-2.22-2.365-5.35m2.077 0c-.592 2.769-.606 3.821.62 3.821s1.644-1.052 2.235-3.82c.577-2.755.606-3.822-.62-3.822s-1.659 1.067-2.235 3.821m6.83-5.148h2.077L69.74 9.836c-.216 1.024-.13 1.788.836 1.788.967 0 1.37-.764 1.587-1.788l1.528-7.181h2.077l-1.529 7.181c-.562 2.625-2.307 3.317-3.994 3.317s-3.173-.562-2.582-3.317zm7.6 0h2.395l1.01 7.052h.028l1.5-7.052h1.903L81.436 12.95h-2.365l-1.01-7.21h-.028l-1.529 7.21h-1.903zm7.445 0h6.576l-.36 1.702h-2.25L86.37 12.95h-2.076l1.831-8.594h-2.25z"/></svg>
